resources/icons/16px/hurricane.svg

<svg width="16" height="16" viewBox="0 0 16 16" fill="none" xmlns="http://www.w3.org/2000/svg">
<path d="M3.5 12C3.5932 12 3.68559 11.9983 3.77715 11.9949C2.73974 10.9671 2.07558 9.56314 2.00605 8.00454L2 8C2 7.9536 2.00045 7.90732 2.00135 7.86114C2.00045 7.8184 2 7.77555 2 7.73259C2 6.59936 2.31417 5.5395 2.86016 4.63537C4.05006 2.46864 6.35352 1 9 1C11.4938 1 15 1.5 16 5C15.0745 4.53723 13.6002 4.07445 12.7044 4.00811C13.5156 5.03134 14 6.3254 14 7.73259C14 7.82077 13.9981 7.9085 13.9943 7.99575L14 8C14 11.866 10.866 15 7 15C4.50623 15 1 14.5 0 11C1 11.5 2.64052 12 3.5 12ZM8 6C6.89543 6 6 6.89543 6 8C6 9.10457 6.89543 10 8 10C9.10457 10 10 9.10457 10 8C10 6.89543 9.10457 6 8 6Z" fill="black"/>
</svg>

<svg xmlns="http://www.w3.org/2000/svg" viewBox="0 0 16 16">
  <path d="M3.5 12q.14 0 .277-.005a5.98 5.98 0 0 1-1.771-3.99L2 8l.001-.139L2 7.733c0-1.134.314-2.193.86-3.098A7 7 0 0 1 9 1c2.494 0 6 .5 7 4-.925-.463-2.4-.926-3.296-.992a5.97 5.97 0 0 1 1.29 3.988L14 8a7 7 0 0 1-7 7c-2.494 0-6-.5-7-4 1 .5 2.64 1 3.5 1M8 6a2 2 0 1 0 0 4 2 2 0 0 0 0-4"/>
</svg>
